packages/astro-components-stencil/src/icons/apps.svg

<svg xmlns="http://www.w3.org/2000/svg" viewBox="0 0 24 24"><g xmlns="http://www.w3.org/2000/svg" id="apps" fill-rule="nonzero">
            <path d="M4 8h4V4H4v4zm6 12h4v-4h-4v4zm-6 0h4v-4H4v4zm0-6h4v-4H4v4zm6 0h4v-4h-4v4zm6-10v4h4V4h-4zm-6 4h4V4h-4v4zm6 6h4v-4h-4v4zm0 6h4v-4h-4v4z"/>
        </g></svg>

<svg width="24" height="24" viewBox="0 0 24 24" fill="none" xmlns="http://www.w3.org/2000/svg">
<path fill-rule="evenodd" clip-rule="evenodd" d="M4 8H8V4H4V8ZM10 20H14V16H10V20ZM8 20H4V16H8V20ZM4 14H8V10H4V14ZM14 14H10V10H14V14ZM16 4V8H20V4H16ZM14 8H10V4H14V8ZM16 14H20V10H16V14ZM20 20H16V16H20V20Z" fill="black"/>
</svg>
